X:1794
T:White Blanket, The
T:An Suisin Ban
C:"collected by Cronin"
S:1794 O'Neill's Music of Ireland
B:O'Neill's 1794
Z:Transcribed by Robert Thorpe (thorpe@skep.com)
Z:ABCMUS 1.0
M:2/4
L:1/8
Q:60
K:G
(3G/A/B/|cE ED/E/|GA/B/ c3/2A/|B/A/G/E/ D/E/F/G/|AA/B/ A(3G/A/B/|
cE ED/E/|GA/B/ c3/2A/|B/A/G/E/ DE/F/|GG G:|
B/-d/|ee/f/ ed|g/e/d/B/ c3/2A/|B/A/G/E/ D/E/F/G/|AA/B/ Ad/c/|
B/A/G/E/ D/E/F/A/|G/A/B/c/ dB/d/|ee/f/ ed|g/e/d/B/ c3/2A/|
B/A/G/E/ D/E/F/G/|AA/B/ Ad/c/|B/A/G/E/ D/E/F/A/|GG/G/ G:|


